svg/300/outlined/subscriptions-fill.svg

<svg xmlns="http://www.w3.org/2000/svg" width="48" height="48" viewBox="0 -960 960 960"><path d="M157.694-100.001q-23.616 0-40.654-17.039-17.039-17.038-17.039-40.654v-404.612q0-23.616 17.039-40.654 17.038-17.039 40.654-17.039h644.612q23.616 0 40.654 17.039 17.039 17.038 17.039 40.654v404.612q0 23.616-17.039 40.654-17.038 17.039-40.654 17.039H157.694Zm257.384-126.385L613.384-360 415.078-492.614v266.228Zm-253-463.613v-45.384h635.844v45.384H162.078Zm127.923-115.385v-45.383h379.998v45.383H290.001Z"/></svg>

<svg xmlns="http://www.w3.org/2000/svg" width="48" height="48" viewBox="0 -960 960 960"><path d="M157.69-100q-23.61 0-40.65-17.04T100-157.69v-404.62q0-23.61 17.04-40.65T157.69-620h644.62q23.61 0 40.65 17.04T860-562.31v404.62q0 23.61-17.04 40.65T802.31-100H157.69Zm257.39-126.39L613.38-360l-198.3-132.61v266.22ZM162.08-690v-45.38h635.84V-690H162.08ZM290-805.38v-45.39h380v45.39H290Z"/></svg>
